browser/images/dark/lc_save.svg

<svg height="24" viewBox="0 0 6.3499999 6.3500002" width="24" xmlns="http://www.w3.org/2000/svg"><g transform="translate(0 -290.64998)"><path d="m3 2a1.0001 1.0001 0 0 0 -1 1v16a1.0001 1.0001 0 0 0 .2929688.707031l2 2a1.0001 1.0001 0 0 0 .7070312.292969h16a1.0001 1.0001 0 0 0 1-1v-18a1.0001 1.0001 0 0 0 -1-1zm3 1h12v6h-12zm1 12h10v6h-6v-5h-2v5h-2z" fill="#d492d8" stroke-width=".999999" transform="matrix(.26458334 0 0 .26458334 0 290.64998)"/><path d="m.79375 291.44375v4.23334l.5291667.52916h.2645833v-1.85208h3.175v1.85208h.79375v-4.7625h-.5291666v1.85209h-3.7041667v-1.85209z" fill="#922e9b" stroke-width=".264583"/></g></svg>

<svg viewBox="0 0 24 24" xmlns="http://www.w3.org/2000/svg">
  <path
     fill="#fafafa"
     d="M 3 2 A 1.0001 1.0001 0 0 0 2 3 L 2 19 A 1.0001 1.0001 0 0 0 2.2929688 19.707031 L 4.2929688 21.707031 A 1.0001 1.0001 0 0 0 5 22 L 21 22 A 1.0001 1.0001 0 0 0 22 21 L 22 3 A 1.0001 1.0001 0 0 0 21 2 L 3 2 z M 3 3 L 5 3 L 5 10 L 19 10 L 19 3 L 21 3 L 21 21 L 18 21 L 18 14 L 6 14 L 6 21 L 5 21 L 3 19 L 3 3 z M 6 3 L 18 3 L 18 9 L 6 9 L 6 3 z M 7 15 L 17 15 L 17 21 L 11 21 L 11 16 L 9 16 L 9 21 L 7 21 L 7 15 z " />
</svg>
